!! 00000] TT[WS
!!!OTL: Buzhidao gege shenhui lai
!!!ARE: Asia, China, Shanxi Hequ
!! Ethnic Group: Han
!! WII, 24 (1)
!!!SCT: J0430
!!!YEM: Copyright 1995, estate of Helmut Schaffrath.
**kern
*ICvox
*Ivox
*M2/4
*k[]
*C:
{8dd
8dd
4dd
=1
8ee
16dd
16ee
4dd
=2
8ee
8dd
8dd
8a
=3
2cc}
=4
{8dd
16a
16cc
4dd
=5
8dd
16cc
16a
8.g
16a
=6
8cc
4dd
8a
=7
2g}
==
!!!AGN: Shange, Shanqu. Qingge
!!!ONB: ESAC (Essen Associative Code) Database: CHINA
!!!AMT: simple duple
!!!AIN: vox
!!!EED: Helmut Schaffrath
!!!EEV: 1.0
*-
